packages/core/src/svgs/tokens/branded/MUSD.svg

<svg width="24" height="24" viewBox="0 0 24 24" fill="none" xmlns="http://www.w3.org/2000/svg">
<path d="M2.625 18.25H21.375V22H2.625V18.25ZM10.75 2H12.625V16.375H10.75V2Z" fill="#F0F3FA"/>
<path d="M13.5561 7.00001H16.9749C16.9749 7.00001 17.0124 6.79376 16.9998 6.48125C16.9498 5.45626 16.4999 3.25 11.9062 3.25C6.8186 3.25 6.7186 6.31875 6.7186 6.77501C6.7186 7.13126 6.51235 9.39378 9.50617 10.15C12.5061 10.9063 13.8749 10.9812 13.8749 12.0875C13.8749 13.2001 12.9061 13.525 12.0998 13.525C11.2874 13.525 10.1248 13.4438 10.1248 12H6.37486C6.37486 12 6.11236 15.75 11.9062 15.75C17.6998 15.75 17.6249 12.25 17.6249 11.7187C17.6249 11.2188 17.5125 9.26252 14.2249 8.45001C10.9437 7.63751 10.1248 7.62501 10.1248 6.48125C10.1248 5.54376 11.4249 5.43751 12.0623 5.43751C12.5187 5.43751 13.5561 5.43125 13.5561 7.00001Z" fill="#F0F3FA"/>
</svg>

<svg xmlns="http://www.w3.org/2000/svg" width="24" height="24" fill="none" viewBox="0 0 24 24">
    <path fill="#F0F3FA" d="M2.625 18.25h18.75V22H2.625zM10.75 2h1.875v14.375H10.75z"/>
    <path fill="#F0F3FA" d="M13.556 7h3.419s.037-.206.025-.519c-.05-1.025-.5-3.231-5.094-3.231-5.087 0-5.187 3.069-5.187 3.525 0 .356-.207 2.619 2.787 3.375 3 .756 4.369.831 4.369 1.938 0 1.112-.969 1.437-1.775 1.437-.813 0-1.975-.081-1.975-1.525h-3.75s-.263 3.75 5.531 3.75 5.719-3.5 5.719-4.031c0-.5-.113-2.456-3.4-3.269-3.281-.812-4.1-.825-4.1-1.969 0-.937 1.3-1.043 1.937-1.043.457 0 1.494-.007 1.494 1.562"/>
</svg>
